X:35
T:Bloody Shiloh
C:Roy Watrous, 1991
S:The Watrous Book, 1992
M:6/8
L:1/8
Q:1/8=270
K:G
%%MIDI program 72
%%MIDI transpose 8
%%MIDI ratio 3 1
{DEF}!p!.G2G (B^AB)|ABA G3|!f!def gdB|!diminuendo(!ABA FED|!diminuendo)!!p!.G2G (B^AB)|ABA G3|
!f!def gdB|ABA G2::z|!f!g2g b2a|gfe d2B|def gdB|!diminuendo(!ABA FED|
!diminuendo)!!p!.G2G (B^AB)|ABA G3|!f!def gdB|ABA G2::d|!ff!(gfg) (e^de)|(gfg) d2d|
(gfg) gdB|!diminuendo(!ABA FED|!diminuendo)!!p!.G2G (B^AB)|ABA G3|!f!def gdB|ABA G2:|]

